svg/fluentui-system-icons/ic_fluent_document_bullet_list_20_regular.svg

<svg width="20" height="20" viewBox="0 0 20 20" fill="none" xmlns="http://www.w3.org/2000/svg">
<path d="M6 10.5C6 10.2239 6.22386 10 6.5 10C6.77614 10 7 10.2239 7 10.5C7 10.7761 6.77614 11 6.5 11C6.22386 11 6 10.7761 6 10.5ZM6.5 12C6.22386 12 6 12.2239 6 12.5C6 12.7761 6.22386 13 6.5 13C6.77614 13 7 12.7761 7 12.5C7 12.2239 6.77614 12 6.5 12ZM6 14.5C6 14.2239 6.22386 14 6.5 14C6.77614 14 7 14.2239 7 14.5C7 14.7761 6.77614 15 6.5 15C6.22386 15 6 14.7761 6 14.5ZM8.5 10C8.22386 10 8 10.2239 8 10.5C8 10.7761 8.22386 11 8.5 11H13.5C13.7761 11 14 10.7761 14 10.5C14 10.2239 13.7761 10 13.5 10H8.5ZM8 12.5C8 12.2239 8.22386 12 8.5 12H13.5C13.7761 12 14 12.2239 14 12.5C14 12.7761 13.7761 13 13.5 13H8.5C8.22386 13 8 12.7761 8 12.5ZM8.5 14C8.22386 14 8 14.2239 8 14.5C8 14.7761 8.22386 15 8.5 15H13.5C13.7761 15 14 14.7761 14 14.5C14 14.2239 13.7761 14 13.5 14H8.5ZM6 2C4.89543 2 4 2.89543 4 4V16C4 17.1046 4.89543 18 6 18H14C15.1046 18 16 17.1046 16 16V7.41421C16 7.01639 15.842 6.63486 15.5607 6.35355L11.6464 2.43934C11.3651 2.15804 10.9836 2 10.5858 2H6ZM5 4C5 3.44772 5.44772 3 6 3H10V6.5C10 7.32843 10.6716 8 11.5 8H15V16C15 16.5523 14.5523 17 14 17H6C5.44772 17 5 16.5523 5 16V4ZM14.7929 7H11.5C11.2239 7 11 6.77614 11 6.5V3.20711L14.7929 7Z" fill="#212121"/>
</svg>

<svg xmlns="http://www.w3.org/2000/svg" width="20" height="20"><path d="M6 10.5a.5.5 0 1 1 1 0 .5.5 0 0 1-1 0Zm.5 1.5a.5.5 0 1 0 0 1 .5.5 0 0 0 0-1ZM6 14.5a.5.5 0 1 1 1 0 .5.5 0 0 1-1 0ZM8.5 10a.5.5 0 0 0 0 1h5a.5.5 0 0 0 0-1h-5ZM8 12.5a.5.5 0 0 1 .5-.5h5a.5.5 0 0 1 0 1h-5a.5.5 0 0 1-.5-.5Zm.5 1.5a.5.5 0 0 0 0 1h5a.5.5 0 0 0 0-1h-5ZM6 2a2 2 0 0 0-2 2v12a2 2 0 0 0 2 2h8a2 2 0 0 0 2-2V7.414a1.5 1.5 0 0 0-.44-1.06l-3.914-3.915A1.5 1.5 0 0 0 10.586 2H6ZM5 4a1 1 0 0 1 1-1h4v3.5A1.5 1.5 0 0 0 11.5 8H15v8a1 1 0 0 1-1 1H6a1 1 0 0 1-1-1V4Zm9.793 3H11.5a.5.5 0 0 1-.5-.5V3.207L14.793 7Z"/></svg>
